Sources/FrostedUI/Resources/Icons.xcassets/receipt20.imageset/receipt-20.svg

<svg width="20" height="20" viewBox="0 0 20 20" fill="none" xmlns="http://www.w3.org/2000/svg" data-fui-icon="true">
  <path
    d="M11.958 0.531128C12.228 0.322626 12.605 0.322736 12.875 0.531128L14.833 2.0448L16.791 0.531128C17.0172 0.356284 17.3234 0.326122 17.5801 0.452026C17.8368 0.578059 17.9999 0.838873 18 1.12488V18.8749C18 19.1609 17.8368 19.4217 17.5801 19.5477C17.3233 19.6737 17.0173 19.6435 16.791 19.4686L14.833 17.954L12.875 19.4686L12.7695 19.537C12.5128 19.674 12.1944 19.6512 11.958 19.4686L10 17.954L8.04199 19.4686C7.80564 19.6512 7.48724 19.674 7.23047 19.537L7.125 19.4686L5.16602 17.954L3.20898 19.4686C2.98273 19.6435 2.67666 19.6737 2.41992 19.5477C2.16317 19.4217 2 19.1609 2 18.8749V1.12488C2.00005 0.838873 2.16317 0.578059 2.41992 0.452026C2.67662 0.326122 2.98275 0.356284 3.20898 0.531128L5.16602 2.0448L7.125 0.531128C7.39502 0.322728 7.77202 0.322634 8.04199 0.531128L10 2.0448L11.958 0.531128L12.416 1.12488H12.417L11.958 0.531128ZM10.459 3.58679L10.3525 3.65515C10.1325 3.77249 9.86752 3.77249 9.64746 3.65515L9.54102 3.58679L7.58301 2.07214L5.625 3.58679L5.51953 3.65515C5.2627 3.79222 4.9444 3.76948 4.70801 3.58679L3.5 2.65222V17.3466L4.70801 16.413C4.97802 16.2043 5.35492 16.2044 5.625 16.413L7.58301 17.9266L9.54102 16.413C9.81115 16.2042 10.1888 16.2042 10.459 16.413L12.416 17.9266L14.375 16.413L14.4805 16.3446C14.7373 16.2076 15.0556 16.2303 15.292 16.413L16.5 17.3466V2.65222L15.292 3.58679C15.0556 3.76948 14.7373 3.79222 14.4805 3.65515L14.375 3.58679L12.416 2.07214L10.459 3.58679ZM10.75 12.7499C11.1642 12.7499 11.4999 13.0857 11.5 13.4999C11.5 13.9141 11.1642 14.2499 10.75 14.2499H6.5C6.08579 14.2499 5.75 13.9141 5.75 13.4999C5.75007 13.0857 6.08583 12.7499 6.5 12.7499H10.75ZM13.5 9.24988C13.9142 9.24988 14.2499 9.58573 14.25 9.99988C14.25 10.4141 13.9142 10.7499 13.5 10.7499H6.5C6.08579 10.7499 5.75 10.4141 5.75 9.99988C5.75007 9.58573 6.08583 9.24988 6.5 9.24988H13.5ZM13.5 5.74988C13.9142 5.74988 14.2499 6.08573 14.25 6.49988C14.25 6.91409 13.9142 7.24988 13.5 7.24988H6.5C6.08579 7.24988 5.75 6.91409 5.75 6.49988C5.75007 6.08573 6.08583 5.74988 6.5 5.74988H13.5Z"
    fill="currentColor"
  />
</svg>

<svg xmlns="http://www.w3.org/2000/svg" width="20" height="20" fill="none" data-fui-icon="true" viewBox="0 0 20 20"><path fill="currentColor" d="M11.958.531a.75.75 0 0 1 .917 0l1.958 1.514L16.791.53A.75.75 0 0 1 18 1.125v17.75a.75.75 0 0 1-1.209.594l-1.958-1.515-1.958 1.515-.105.068a.75.75 0 0 1-.812-.068L10 17.954l-1.958 1.515a.75.75 0 0 1-.812.068l-.105-.068-1.959-1.515-1.957 1.515A.75.75 0 0 1 2 18.875V1.125A.75.75 0 0 1 3.209.53l1.957 1.514L7.125.53a.75.75 0 0 1 .917 0L10 2.045zl.458.594h.001zm-1.499 3.056-.107.068a.75.75 0 0 1-.705 0l-.106-.068-1.958-1.515-1.958 1.515-.105.068a.75.75 0 0 1-.812-.068L3.5 2.652v14.695l1.208-.934a.75.75 0 0 1 .917 0l1.958 1.514 1.958-1.514a.75.75 0 0 1 .918 0l1.957 1.514 1.959-1.514.105-.068a.75.75 0 0 1 .812.068l1.208.934V2.652l-1.208.935a.75.75 0 0 1-.812.068l-.105-.068-1.959-1.515zm.291 9.163a.75.75 0 0 1 0 1.5H6.5a.75.75 0 0 1 0-1.5zm2.75-3.5a.75.75 0 0 1 0 1.5h-7a.75.75 0 0 1 0-1.5zm0-3.5a.75.75 0 0 1 0 1.5h-7a.75.75 0 0 1 0-1.5z"/></svg>
